images/dump-truck 1.svg

<svg fill="none" height="218" viewBox="0 0 218 218" width="218" xmlns="http://www.w3.org/2000/svg" xmlns:xlink="http://www.w3.org/1999/xlink"><clipPath id="a"><path d="m0-.000244h218v218h-218z"/></clipPath><g clip-path="url(#a)"><path d="m214.807 124.732c1.763 0 3.193-1.429 3.193-3.193v-10.474c0-.616-.111-1.225-.317-1.8l-.002-.006c-.003-.009-.008-.019-.011-.028-.044-.119-.091-.237-.143-.353-.002-.004-.004-.008-.006-.012-.054-.121-.112-.24-.176-.356-.003-.005-.006-.01-.008-.014-.063-.114-.129-.227-.201-.336-.038-.059-.081-.116-.121-.173-.038-.053-.073-.107-.112-.159l-25.477-33.2697c-.996-1.3144-2.579-2.0991-4.235-2.0991h-27.599v-9.3663h31.814c2.935 0 5.322-2.3874 5.322-5.3223v-9.7632c0-2.9349-2.387-5.3222-5.322-5.3222h-40.556c-.724 0-1.427.2465-1.993.6987l-21.488 17.1671h-39.8361c-1.7636 0-3.1934 1.4297-3.1934 3.1933s1.4298 3.1934 3.1934 3.1934h40.9551c.725 0 1.428-.2465 1.993-.6987l21.488-17.1671h38.372v7.6343h-35.157c-.724 0-1.427.2465-1.993.6987l-21.483 17.167c-29.445 0-98.9595 0-124.66905 0v-7.6342h65.59165c1.7635 0 3.1933-1.4298 3.1933-3.1934s-1.4298-3.1933-3.1933-3.1933h-66.6561c-2.93491 0-5.322265 2.3873-5.322265 5.3222v9.7632c0 2.9349 2.387355 5.3223 5.322265 5.3223h.38661l14.03969 35.0243h-4.0543c-6.0712 0-11.01067 4.939-11.01067 11.01v23.179l-5.109802 12.88c-.650594 1.64.151152 3.496 1.790832 4.146 1.64011.651 3.49567-.151 4.14584-1.791l4.1343-10.421 8.9614 3.761c2.8847 9.573 11.7789 16.567 22.2795 16.567 9.2113 0 17.1892-5.381 20.9565-13.164h10.1051c3.7673 7.783 11.7451 13.164 20.9565 13.164 1.4391 0 2.8808-.133 4.2851-.394 5.7599-1.074 10.8689-4.265 14.3859-8.986.892-1.199 1.656-2.465 2.294-3.784h13.118l1.292 3.257c.497 1.253 1.698 2.017 2.969 2.017.392 0 .79-.073 1.177-.226 1.639-.65 2.441-2.506 1.79-4.146l-.358-.902h18.21c3.767 7.783 11.745 13.164 20.957 13.164 9.211 0 17.189-5.381 20.956-13.164h18.041c2.937 0 5.327-2.39 5.327-5.327v-20.382c0-1.763-1.43-3.193-3.194-3.193-1.763 0-3.193 1.43-3.193 3.193v19.322h-14.971c.195-1.21.301-2.451.301-3.715 0-12.83-10.438-23.267-23.268-23.267-5.29 0-10.171 1.778-14.084 4.763v-54.6981h27.074l4.202 5.4875h-17.122c-2.231 0-4.046 1.8151-4.046 4.0462v21.1104c0 2.231 1.815 4.046 4.046 4.046h37.868v8.003c0 1.764 1.43 3.193 3.194 3.193zm-61.602-59.1628v50.4138h-18.113v-13.948c0-1.764-1.43-3.1935-3.193-3.1935-1.764 0-3.193 1.4295-3.193 3.1935v13.948h-24.381v-35.0243h24.38v6.1729c0 1.7636 1.43 3.1934 3.193 3.1934 1.764 0 3.194-1.4298 3.194-3.1934v-7.0888zm-79.6467 50.4138v-35.0243h24.3803v35.0243zm-30.7665 0v-35.0243h24.3802v35.0243zm-29.5501-35.0243h23.163v35.0243h-9.1233zm5.0447 70.4553-5.6344-2.365 5.5067-13.881h7.3898c-4.3336 4.107-7.0897 9.858-7.2621 16.246zm23.2511 17.514c-9.308 0-16.8806-7.573-16.8806-16.881 0-9.294 7.5504-16.857 16.8397-16.879h.0817c9.2889.022 16.8392 7.585 16.8392 16.879.0005 9.308-7.572 16.881-16.88 16.881zm22.9666-13.165c.195-1.21.3002-2.451.3002-3.715 0-6.641-2.8012-12.636-7.2783-16.88h20.0411c-4.4771 4.244-7.2783 10.239-7.2783 16.88 0 1.265.1051 2.505.3001 3.715zm32.1669 12.878c-1.0193.19-2.0672.287-3.115.287-9.3076 0-16.8801-7.573-16.8801-16.881 0-9.294 7.5504-16.857 16.8392-16.879h.0818c9.2891.022 16.8401 7.585 16.8401 16.879 0 2.016-.352 3.977-1.029 5.822-.018.048-.037.095-.053.145-.549 1.452-1.302 2.831-2.251 4.105-2.553 3.428-6.259 5.745-10.433 6.522zm19.859-12.878c.194-1.218.293-2.459.293-3.715 0-6.641-2.801-12.636-7.278-16.88h7.389l8.171 20.595zm15.446 0-9.371-23.62c-.81-2.042-2.753-3.362-4.949-3.362h-100.2165c-2.1983 0-4.142 1.32-4.9514 3.362l-.7656 1.93v-7.08c0-2.549 2.0745-4.624 4.624-4.624h136.8585v18.629c-1.783 3.289-2.796 7.053-2.796 11.049 0 1.265.105 2.505.3 3.716zm41.7-20.596c9.308 0 16.88 7.573 16.88 16.88 0 9.308-7.572 16.881-16.88 16.881s-16.88-7.573-16.88-16.881c0-9.307 7.572-16.88 16.88-16.88zm2.41-44.4469h19.672l12.581 16.4299h-32.253z" fill="#374a5c"/><g fill="#fece03"><path d="m173.677 162.151c5.571 0 10.104-4.532 10.104-10.104 0-5.571-4.533-10.104-10.104-10.104-5.572 0-10.104 4.532-10.104 10.104s4.532 10.104 10.104 10.104zm0-13.821c2.049 0 3.717 1.667 3.717 3.717s-1.668 3.718-3.717 3.718c-2.05 0-3.718-1.668-3.718-3.718s1.668-3.717 3.718-3.717z"/><path d="m41.5369 141.943c-5.5714 0-10.1038 4.532-10.1038 10.104 0 5.571 4.5324 10.104 10.1038 10.104 5.5713 0 10.1042-4.532 10.1042-10.104 0-5.571-4.5329-10.104-10.1042-10.104zm0 13.822c-2.0497 0-3.7171-1.668-3.7171-3.718s1.6674-3.717 3.7171-3.717 3.7175 1.667 3.7175 3.717-1.6678 3.718-3.7175 3.718z"/><path d="m93.5569 141.943c-5.5714 0-10.1043 4.532-10.1043 10.104 0 5.571 4.5325 10.104 10.1043 10.104 5.5717 0 10.1041-4.532 10.1041-10.104 0-5.571-4.5328-10.104-10.1041-10.104zm0 13.822c-2.0498 0-3.7175-1.668-3.7175-3.718s1.6673-3.717 3.7175-3.717c2.0501 0 3.7174 1.667 3.7174 3.717s-1.6677 3.718-3.7174 3.718z"/></g></g></svg>

<svg width="218" height="218" viewBox="0 0 218 218" fill="none" xmlns="http://www.w3.org/2000/svg">
<g clip-path="url(#clip0)">
<path d="M214.807 124.732C216.57 124.732 218 123.303 218 121.539V111.065C218 110.449 217.889 109.84 217.683 109.265L217.681 109.259C217.678 109.25 217.673 109.24 217.67 109.231C217.626 109.112 217.579 108.994 217.527 108.878C217.525 108.874 217.523 108.87 217.521 108.866C217.467 108.745 217.409 108.626 217.345 108.51C217.342 108.505 217.339 108.5 217.337 108.496C217.274 108.382 217.208 108.269 217.136 108.16C217.098 108.101 217.055 108.044 217.015 107.987C216.977 107.934 216.942 107.88 216.903 107.828L191.426 74.5583C190.43 73.2439 188.847 72.4592 187.191 72.4592H159.592V63.0929H191.406C194.341 63.0929 196.728 60.7055 196.728 57.7706V48.0074C196.728 45.0725 194.341 42.6852 191.406 42.6852H150.85C150.126 42.6852 149.423 42.9317 148.857 43.3839L127.369 60.551H87.5329C85.7693 60.551 84.3395 61.9807 84.3395 63.7443C84.3395 65.5079 85.7693 66.9377 87.5329 66.9377H128.488C129.213 66.9377 129.916 66.6912 130.481 66.239L151.969 49.0719H190.341V56.7062H155.184C154.46 56.7062 153.757 56.9527 153.191 57.4049L131.708 74.5719C102.263 74.5719 32.7485 74.5719 7.03895 74.5719V66.9377H72.6306C74.3941 66.9377 75.8239 65.5079 75.8239 63.7443C75.8239 61.9807 74.3941 60.551 72.6306 60.551H5.9745C3.03959 60.551 0.652235 62.9383 0.652235 65.8732V75.6364C0.652235 78.5713 3.03959 80.9587 5.9745 80.9587H6.36111L20.4008 115.983H16.3465C10.2753 115.983 5.33583 120.922 5.33583 126.993V150.172L0.226028 163.052C-0.424566 164.692 0.37718 166.548 2.01686 167.198C3.65697 167.849 5.51253 167.047 6.1627 165.407L10.297 154.986L19.2584 158.747C22.1431 168.32 31.0373 175.314 41.5379 175.314C50.7492 175.314 58.7271 169.933 62.4944 162.15H72.5995C76.3668 169.933 84.3446 175.314 93.556 175.314C94.9951 175.314 96.4368 175.181 97.8411 174.92C103.601 173.846 108.71 170.655 112.227 165.934C113.119 164.735 113.883 163.469 114.521 162.15H127.639L128.931 165.407C129.428 166.66 130.629 167.424 131.9 167.424C132.292 167.424 132.69 167.351 133.077 167.198C134.716 166.548 135.518 164.692 134.867 163.052L134.509 162.15H152.719C156.486 169.933 164.464 175.314 173.676 175.314C182.887 175.314 190.865 169.933 194.632 162.15H212.673C215.61 162.15 218 159.76 218 156.823V136.441C218 134.678 216.57 133.248 214.806 133.248C213.043 133.248 211.613 134.678 211.613 136.441V155.763H196.642C196.837 154.553 196.943 153.312 196.943 152.048C196.943 139.218 186.505 128.781 173.675 128.781C168.385 128.781 163.504 130.559 159.591 133.544V78.8459H186.665L190.867 84.3334H173.745C171.514 84.3334 169.699 86.1485 169.699 88.3796V109.49C169.699 111.721 171.514 113.536 173.745 113.536H211.613V121.539C211.613 123.303 213.043 124.732 214.807 124.732ZM153.205 65.5692V115.983H135.092V102.035C135.092 100.271 133.662 98.8415 131.899 98.8415C130.135 98.8415 128.706 100.271 128.706 102.035V115.983H104.325V80.9587H128.705V87.1316C128.705 88.8952 130.135 90.325 131.898 90.325C133.662 90.325 135.092 88.8952 135.092 87.1316V80.0428L153.205 65.5692ZM73.5583 115.983V80.9587H97.9386V115.983H73.5583ZM42.7918 115.983V80.9587H67.172V115.983H42.7918ZM13.2417 80.9587H36.4047V115.983H27.2814L13.2417 80.9587ZM18.2864 151.414L12.652 149.049L18.1587 135.168H25.5485C21.2149 139.275 18.4588 145.026 18.2864 151.414ZM41.5375 168.928C32.2295 168.928 24.6569 161.355 24.6569 152.047C24.6569 142.753 32.2073 135.19 41.4966 135.168H41.5783C50.8672 135.19 58.4175 142.753 58.4175 152.047C58.418 161.355 50.8455 168.928 41.5375 168.928ZM64.5041 155.763C64.6991 154.553 64.8043 153.312 64.8043 152.048C64.8043 145.407 62.0031 139.412 57.526 135.168H77.5671C73.09 139.412 70.2888 145.407 70.2888 152.048C70.2888 153.313 70.3939 154.553 70.5889 155.763H64.5041ZM96.671 168.641C95.6517 168.831 94.6038 168.928 93.556 168.928C84.2484 168.928 76.6759 161.355 76.6759 152.047C76.6759 142.753 84.2263 135.19 93.5151 135.168H93.5969C102.886 135.19 110.437 142.753 110.437 152.047C110.437 154.063 110.085 156.024 109.408 157.869C109.39 157.917 109.371 157.964 109.355 158.014C108.806 159.466 108.053 160.845 107.104 162.119C104.551 165.547 100.845 167.864 96.671 168.641ZM116.53 155.763C116.724 154.545 116.823 153.304 116.823 152.048C116.823 145.407 114.022 139.412 109.545 135.168H116.934L125.105 155.763H116.53ZM131.976 155.763L122.605 132.143C121.795 130.101 119.852 128.781 117.656 128.781H17.4395C15.2412 128.781 13.2975 130.101 12.4881 132.143L11.7225 134.073V126.993C11.7225 124.444 13.797 122.369 16.3465 122.369H153.205V140.998C151.422 144.287 150.409 148.051 150.409 152.047C150.409 153.312 150.514 154.552 150.709 155.763H131.976V155.763ZM173.676 135.167C182.984 135.167 190.556 142.74 190.556 152.047C190.556 161.355 182.984 168.928 173.676 168.928C164.368 168.928 156.796 161.355 156.796 152.047C156.796 142.74 164.368 135.167 173.676 135.167ZM176.086 90.7201H195.758L208.339 107.15H176.086V90.7201Z" fill="#374A5C"/>
<path d="M173.677 162.151C179.248 162.151 183.781 157.619 183.781 152.047C183.781 146.476 179.248 141.943 173.677 141.943C168.105 141.943 163.573 146.475 163.573 152.047C163.573 157.619 168.105 162.151 173.677 162.151ZM173.677 148.33C175.726 148.33 177.394 149.997 177.394 152.047C177.394 154.097 175.726 155.765 173.677 155.765C171.627 155.765 169.959 154.097 169.959 152.047C169.959 149.997 171.627 148.33 173.677 148.33Z" fill="#FECE03"/>
<path d="M41.5369 141.943C35.9655 141.943 31.4331 146.475 31.4331 152.047C31.4331 157.618 35.9655 162.151 41.5369 162.151C47.1082 162.151 51.6411 157.619 51.6411 152.047C51.6411 146.476 47.1082 141.943 41.5369 141.943ZM41.5369 155.765C39.4872 155.765 37.8198 154.097 37.8198 152.047C37.8198 149.997 39.4872 148.33 41.5369 148.33C43.5866 148.33 45.2544 149.997 45.2544 152.047C45.2544 154.097 43.5866 155.765 41.5369 155.765Z" fill="#FECE03"/>
<path d="M93.5569 141.943C87.9855 141.943 83.4526 146.475 83.4526 152.047C83.4526 157.618 87.9851 162.151 93.5569 162.151C99.1286 162.151 103.661 157.619 103.661 152.047C103.661 146.476 99.1282 141.943 93.5569 141.943ZM93.5569 155.765C91.5071 155.765 89.8394 154.097 89.8394 152.047C89.8394 149.997 91.5067 148.33 93.5569 148.33C95.607 148.33 97.2743 149.997 97.2743 152.047C97.2743 154.097 95.6066 155.765 93.5569 155.765Z" fill="#FECE03"/>
</g>
<defs>
<clipPath id="clip0">
<rect width="218" height="218" fill="white" transform="translate(0 -0.000244141)"/>
</clipPath>
</defs>
</svg>
